X: 28672
T: Mussels In The Corner
R: polka
M: 2/4
K: Dmajor
|:dc BA|FA B2|AF DE|FE E2|
dc BA|FA B2|AF EF|D2 D2:|
|:FE DE|FA B2|AF DE|FE E2|
FE DE|FA B2|AF EF|D2 D2:|

